; generated by Slic3r 1.1.7 on 2014-10-12 at 08:28:53
; perimeters extrusion width = 0.40mm
; infill extrusion width = 0.42mm
; solid infill extrusion width = 0.42mm
; top infill extrusion width = 0.42mm
G21 ; set units to millimeters
M107
;M190 S50 ; wait for bed temperature to be reached
M104 S250 ; set temperature
G28 ; home all axes
;M109 S250 ; wait for temperature to be reached
G90 ; use absolute coordinates
G92 E0
M82 ; use absolute distances for extrusion
G1 F1800.000 E-1.00000
G92 E0
G1 Z0.400 F7800.000
G1 X31.513 Y73.910 F7800.000
G1 E1.00000 F1800.000
G1 X31.970 Y73.721 E1.05874 F1080.000
G1 X33.663 Y73.267 E1.26692
G1 X35.030 Y73.145 E1.42988
G1 X91.074 Y73.145 E8.08603
G1 X165.847 Y73.695 E16.96660 F1080.000
G1 X166.337 Y73.759 E17.02534
G1 X168.030 Y74.213 E17.23349
G1 X168.487 Y74.402 E17.29223
G1 X170.005 Y75.278 E17.50042
G1 X170.397 Y75.580 E17.55917
G1 X171.637 Y76.819 E17.76731
G1 X171.938 Y77.211 E17.82605
G1 X172.814 Y78.729 E18.03424
G1 X173.003 Y79.186 E18.09298
G1 X173.457 Y80.879 E18.30111
G1 X173.491 Y81.138 E18.33214
G1 X173.579 Y82.246 E18.46413
G1 X173.522 Y119.122 E22.84376
G1 X173.457 Y119.613 E22.90253
G1 X173.003 Y121.306 E23.11066
G1 X172.814 Y121.763 E23.16940
G1 X171.938 Y123.281 E23.37758
G1 X171.637 Y123.673 E23.43633
G1 X170.397 Y124.912 E23.64449
G1 X170.005 Y125.213 E23.70323
G1 X168.487 Y126.090 E23.91139
G1 X168.030 Y126.279 E23.97014
G1 X166.337 Y126.733 E24.17830
G1 X164.970 Y126.855 E24.34127
G1 X108.926 Y126.855 E30.99742
G1 X34.153 Y126.305 E39.87798
G1 X33.663 Y126.241 E39.93673
G1 X31.970 Y125.787 E40.14489
G1 X31.513 Y125.598 E40.20363
G1 X29.995 Y124.722 E40.41180
G1 X29.603 Y124.420 E40.47055
G1 X28.363 Y123.181 E40.67870
G1 X28.062 Y122.789 E40.73744
G1 X27.186 Y121.271 E40.94561
G1 X26.997 Y120.814 E41.00435
G1 X26.543 Y119.121 E41.21253
G1 X26.421 Y117.754 E41.37549
G1 X26.478 Y80.878 E45.75511
G1 X26.543 Y80.387 E45.81385
G1 X26.997 Y78.694 E46.02204
G1 X27.186 Y78.237 E46.08078
G1 X28.062 Y76.719 E46.28893
G1 X28.363 Y76.327 E46.34767
G1 X29.603 Y75.088 E46.55584
G1 X29.995 Y74.787 E46.61458
G1 X31.461 Y73.940 E46.81562
G1 F1800.000 E45.81562
G92 E0
G1 X165.037 Y118.312 F7800.000
G1 E1.00000 F1800.000
G1 X108.904 Y118.312 E7.66660 F540.000
G1 X108.904 Y82.180 E11.95790
G1 X165.037 Y82.180 E18.62451
G1 X165.037 Y118.252 E22.90868
G1 X165.356 Y81.578 F7800.000
G1 X165.515 Y81.701 E22.93258 F540.000
G1 X165.638 Y81.860 E22.95648
G1 X165.715 Y82.046 E22.98038
G1 X165.751 Y82.319 E23.01303
G1 X165.751 Y118.173 E27.27123
G1 X165.715 Y118.445 E27.30388
G1 X165.638 Y118.631 E27.32778
G1 X165.515 Y118.791 E27.35168
G1 X165.356 Y118.914 E27.37558
G1 X165.170 Y118.991 E27.39948
G1 X164.897 Y119.026 E27.43212
G1 X109.043 Y119.026 E34.06563
G1 X108.771 Y118.991 E34.09828
G1 X108.585 Y118.914 E34.12218
G1 X108.425 Y118.791 E34.14608
G1 X108.303 Y118.631 E34.16998
G1 X108.226 Y118.445 E34.19388
G1 X108.190 Y118.173 E34.22653
G1 X108.190 Y82.319 E38.48473
G1 X108.226 Y82.046 E38.51737
G1 X108.303 Y81.860 E38.54127
G1 X108.425 Y81.701 E38.56517
G1 X108.585 Y81.578 E38.58907
G1 X108.771 Y81.501 E38.61297
G1 X109.043 Y81.465 E38.64562
G1 X164.897 Y81.465 E45.27913
G1 X165.170 Y81.501 E45.31177
G1 X165.300 Y81.555 E45.32855
G1 X165.629 Y80.919 F7800.000
G1 X165.716 Y80.955 E45.33972 F378.000
G1 X166.025 Y81.191 E45.38595
G1 X166.262 Y81.500 E45.43218
G1 X166.411 Y81.860 E45.47842
G1 X166.465 Y82.272 E45.52779
G1 X166.465 Y118.220 E49.79711
G1 X166.411 Y118.632 E49.84648
G1 X166.262 Y118.992 E49.89272
G1 X166.025 Y119.300 E49.93895
G1 X165.716 Y119.537 E49.98518
G1 X165.356 Y119.686 E50.03141
G1 X164.944 Y119.741 E50.08079
G1 X108.996 Y119.741 E56.72541
G1 X108.584 Y119.686 E56.77478
G1 X108.225 Y119.537 E56.82102
G1 X107.916 Y119.300 E56.86725
G1 X107.679 Y118.992 E56.91348
G1 X107.530 Y118.632 E56.95971
G1 X107.476 Y118.220 E57.00909
G1 X107.476 Y82.272 E61.27841
G1 X107.530 Y81.860 E61.32778
G1 X107.679 Y81.500 E61.37401
G1 X107.916 Y81.191 E61.42025
G1 X108.225 Y80.955 E61.46648
G1 X108.584 Y80.806 E61.51271
G1 X108.996 Y80.751 E61.56209
G1 X164.944 Y80.751 E68.20671
G1 X165.150 Y80.778 E68.23134
G1 X165.356 Y80.806 E68.25608 F378.000
G1 X165.573 Y80.896 E68.28402
G1 X165.023 Y80.944 F7800.000
G1 X164.499 Y82.677 F7800.000
G1 X164.539 Y82.717 E68.29074 F1080.000
G1 X164.539 Y83.731 E68.41110
G1 X163.485 Y82.677 E68.58803
G1 X162.472 Y82.677 E68.70839
G1 X164.539 Y84.744 E69.05553
G1 X164.539 Y85.758 E69.17589
G1 X161.459 Y82.677 E69.69325
G1 X160.445 Y82.677 E69.81361
G1 X164.539 Y86.771 E70.50118
G1 X164.539 Y87.784 E70.62154
G1 X159.432 Y82.677 E71.47932
G1 X158.418 Y82.677 E71.59968
G1 X164.539 Y88.798 E72.62768
G1 X164.539 Y89.811 E72.74804
G1 X157.405 Y82.677 E73.94625
G1 X156.391 Y82.677 E74.06661
G1 X164.539 Y90.825 E75.43503
G1 X164.539 Y91.838 E75.55539
G1 X155.378 Y82.677 E77.09403
G1 X154.365 Y82.677 E77.21439
G1 X164.539 Y92.852 E78.92324
G1 X164.539 Y93.865 E79.04360
G1 X153.351 Y82.677 E80.92266
G1 X152.338 Y82.677 E81.04302
G1 X164.539 Y94.878 E83.09230
G1 X164.539 Y95.892 E83.21266
G1 X151.324 Y82.677 E85.43215
G1 X150.311 Y82.677 E85.55251
G1 X164.539 Y96.905 E87.94221
G1 X164.539 Y97.919 E88.06257
G1 X149.297 Y82.677 E90.62249
G1 X148.284 Y82.677 E90.74285
G1 X164.539 Y98.932 E93.47298
G1 X164.539 Y99.945 E93.59333
G1 X147.271 Y82.677 E96.49368
G1 X146.257 Y82.677 E96.61404
G1 X164.539 Y100.959 E99.68459
G1 X164.539 Y101.972 E99.80495
G1 X145.244 Y82.677 E103.04572
G1 X144.230 Y82.677 E103.16608
G1 X164.539 Y102.986 E106.57706
G1 X164.539 Y103.999 E106.69742
G1 X143.217 Y82.677 E110.27862
G1 X142.204 Y82.677 E110.39898
G1 X164.539 Y105.013 E114.15039
G1 X164.539 Y106.026 E114.27075
G1 X141.190 Y82.677 E118.19237
G1 X140.177 Y82.677 E118.31273
G1 X164.539 Y107.039 E122.40456
G1 X164.539 Y108.053 E122.52492
G1 X139.163 Y82.677 E126.78697
G1 X138.150 Y82.677 E126.90733
G1 X164.539 Y109.066 E131.33959
G1 X164.539 Y110.080 E131.45995
G1 X137.136 Y82.677 E136.06243
G1 X136.123 Y82.677 E136.18278
G1 X164.539 Y111.093 E140.95547
G1 X164.539 Y112.107 E141.07583
G1 X135.110 Y82.677 E146.01873
G1 X134.096 Y82.677 E146.13909
G1 X164.539 Y113.120 E151.25221
G1 X164.539 Y114.133 E151.37257
G1 X133.083 Y82.677 E156.65590
G1 X132.069 Y82.677 E156.77625
G1 X164.539 Y115.147 E162.22980
G1 X164.539 Y116.160 E162.35015
G1 X131.056 Y82.677 E167.97391
G1 X130.043 Y82.677 E168.09427
G1 X164.539 Y117.174 E173.88824
G1 X164.166 Y117.815 E173.97628
G1 X129.029 Y82.677 E179.87789
G1 X128.016 Y82.677 E179.99825
G1 X163.153 Y117.815 E185.89986
G1 X162.139 Y117.815 E186.02022
G1 X127.002 Y82.677 E191.92184
G1 X125.989 Y82.677 E192.04219
G1 X161.126 Y117.815 E197.94381
G1 X160.113 Y117.815 E198.06417
G1 X124.975 Y82.677 E203.96578
G1 X123.962 Y82.677 E204.08614
G1 X159.099 Y117.815 E209.98775
G1 X158.086 Y117.815 E210.10811
G1 X122.949 Y82.677 E216.00972
G1 X121.935 Y82.677 E216.13008
G1 X157.072 Y117.815 E222.03170
G1 X156.059 Y117.815 E222.15206
G1 X120.922 Y82.677 E228.05367
G1 X119.908 Y82.677 E228.17403
G1 X155.045 Y117.815 E234.07564
G1 X154.032 Y117.815 E234.19600
G1 X118.895 Y82.677 E240.09761
G1 X117.881 Y82.677 E240.21797
G1 X153.019 Y117.815 E246.11959
G1 X152.005 Y117.815 E246.23995
G1 X116.868 Y82.677 E252.14156
G1 X115.855 Y82.677 E252.26192
G1 X150.992 Y117.815 E258.16353
G1 X149.978 Y117.815 E258.28389
G1 X114.841 Y82.677 E264.18550
G1 X113.828 Y82.677 E264.30586
G1 X148.965 Y117.815 E270.20748
G1 X147.952 Y117.815 E270.32784
G1 X112.814 Y82.677 E276.22945
G1 X111.801 Y82.677 E276.34981
G1 X146.938 Y117.815 E282.25142
G1 X145.925 Y117.815 E282.37178
G1 X110.788 Y82.677 E288.27339
G1 X109.774 Y82.677 E288.39375
G1 X144.911 Y117.815 E294.29537
G1 X143.898 Y117.815 E294.41572
G1 X109.402 Y83.318 E300.20969
G1 X109.402 Y84.332 E300.33005
G1 X142.884 Y117.815 E305.95380
G1 X141.871 Y117.815 E306.07416
G1 X109.402 Y85.345 E311.52770
G1 X109.402 Y86.359 E311.64806
G1 X140.858 Y117.815 E316.93139
G1 X139.844 Y117.815 E317.05175
G1 X109.402 Y87.372 E322.16486
G1 X109.402 Y88.385 E322.28522
G1 X138.831 Y117.815 E327.22812
G1 X137.817 Y117.815 E327.34848
G1 X109.402 Y89.399 E332.12117
G1 X109.402 Y90.412 E332.24153
G1 X136.804 Y117.815 E336.84400
G1 X135.791 Y117.815 E336.96436
G1 X109.402 Y91.426 E341.39662
G1 X109.402 Y92.439 E341.51698
G1 X134.777 Y117.815 E345.77903
G1 X133.764 Y117.815 E345.89939
G1 X109.402 Y93.452 E349.99123
G1 X109.402 Y94.466 E350.11159
G1 X132.750 Y117.815 E354.03321
G1 X131.737 Y117.815 E354.15357
G1 X109.402 Y95.479 E357.90498
G1 X109.402 Y96.493 E358.02533
G1 X130.723 Y117.815 E361.60653
G1 X129.710 Y117.815 E361.72689
G1 X109.402 Y97.506 E365.13787
G1 X109.402 Y98.520 E365.25823
G1 X128.697 Y117.815 E368.49900
G1 X127.683 Y117.815 E368.61936
G1 X109.402 Y99.533 E371.68991
G1 X109.402 Y100.546 E371.81027
G1 X126.670 Y117.815 E374.71062
G1 X125.656 Y117.815 E374.83097
G1 X109.402 Y101.560 E377.56110
G1 X109.402 Y102.573 E377.68146
G1 X124.643 Y117.815 E380.24138
G1 X123.629 Y117.815 E380.36174
G1 X109.402 Y103.587 E382.75144
G1 X109.402 Y104.600 E382.87180
G1 X122.616 Y117.815 E385.09129
G1 X121.603 Y117.815 E385.21165
G1 X109.402 Y105.613 E387.26093
G1 X109.402 Y106.627 E387.38129
G1 X120.589 Y117.815 E389.26035
G1 X119.576 Y117.815 E389.38071
G1 X109.402 Y107.640 E391.08956
G1 X109.402 Y108.654 E391.20992
G1 X118.562 Y117.815 E392.74855
G1 X117.549 Y117.815 E392.86891
G1 X109.402 Y109.667 E394.23734
G1 X109.402 Y110.681 E394.35770
G1 X116.536 Y117.815 E395.55591
G1 X115.522 Y117.815 E395.67627
G1 X109.402 Y111.694 E396.70426
G1 X109.402 Y112.707 E396.82462
G1 X114.509 Y117.815 E397.68241
G1 X113.495 Y117.815 E397.80276
G1 X109.402 Y113.721 E398.49034
G1 X109.402 Y114.734 E398.61070
G1 X112.482 Y117.815 E399.12805
G1 X111.468 Y117.815 E399.24841
G1 X109.402 Y115.748 E399.59556
G1 X109.402 Y116.761 E399.71592
G1 X110.455 Y117.815 E399.89285
G1 X109.442 Y117.815 E400.01321
G1 X109.402 Y117.775 E400.01992
G1 F1800.000 E399.01992
G92 E0
G1 X91.096 Y81.688 F7800.000
G1 E1.00000 F1800.000
G1 X91.096 Y117.820 E5.29130 F540.000
G1 X34.963 Y117.820 E11.95791
G1 X34.963 Y81.688 E16.24921
G1 X91.036 Y81.688 E22.90868
G1 X91.415 Y81.086 F7800.000
G1 X91.575 Y81.209 E22.93259 F540.000
G1 X91.697 Y81.369 E22.95648
G1 X91.774 Y81.555 E22.98039
G1 X91.810 Y81.827 E23.01303
G1 X91.810 Y117.681 E27.27123
G1 X91.774 Y117.954 E27.30388
G1 X91.697 Y118.140 E27.32778
G1 X91.618 Y118.266 E27.34557
G1 X91.415 Y118.422 E27.37588
G1 X91.229 Y118.499 E27.39978
G1 X90.957 Y118.535 E27.43243
G1 X35.103 Y118.535 E34.06593
G1 X34.830 Y118.499 E34.09858
G1 X34.644 Y118.422 E34.12248
G1 X34.554 Y118.352 E34.13605
G1 X34.485 Y118.299 E34.14638
G1 X34.362 Y118.140 E34.17028
G1 X34.285 Y117.954 E34.19418
G1 X34.249 Y117.681 E34.22683
G1 X34.249 Y81.827 E38.48503
G1 X34.285 Y81.555 E38.51767
G1 X34.362 Y81.369 E38.54157
G1 X34.485 Y81.209 E38.56548
G1 X34.644 Y81.086 E38.58937
G1 X34.830 Y81.009 E38.61327
G1 X35.103 Y80.974 E38.64592
G1 X90.957 Y80.974 E45.27943
G1 X91.229 Y81.009 E45.31207
G1 X91.360 Y81.064 E45.32885
G1 X91.850 Y80.520 F7800.000
G1 X92.084 Y80.700 E45.36391 F378.000
G1 X92.321 Y81.008 E45.41015
G1 X92.470 Y81.368 E45.45638
G1 X92.524 Y81.780 E45.50575
G1 X92.524 Y117.728 E49.77507
G1 X92.470 Y118.140 E49.82444
G1 X92.321 Y118.500 E49.87068
G1 X92.084 Y118.809 E49.91691
G1 X91.775 Y119.045 E49.96314
G1 X91.416 Y119.194 E50.00938
G1 X91.004 Y119.249 E50.05875
G1 X35.056 Y119.249 E56.70337
G1 X34.644 Y119.194 E56.75275
G1 X34.284 Y119.045 E56.79898
G1 X34.119 Y118.919 E56.82372
G1 X33.975 Y118.809 E56.84521
G1 X33.738 Y118.500 E56.89144
G1 X33.589 Y118.140 E56.93768
G1 X33.535 Y117.728 E56.98705
G1 X33.535 Y81.780 E61.25637
G1 X33.589 Y81.368 E61.30574
G1 X33.738 Y81.008 E61.35198
G1 X33.975 Y80.700 E61.39821
G1 X34.284 Y80.463 E61.44444
G1 X34.644 Y80.314 E61.49067
G1 X35.056 Y80.259 E61.54005
G1 X91.004 Y80.259 E68.18467
G1 X91.209 Y80.287 E68.20931
G1 X91.416 Y80.314 E68.23404 F378.000
G1 X91.802 Y80.483 E68.28419
G1 X91.082 Y80.452 F7800.000
G1 X90.558 Y82.185 F7800.000
G1 X90.598 Y82.225 E68.29091 F1080.000
G1 X90.598 Y83.239 E68.41127
G1 X89.545 Y82.185 E68.58820
G1 X88.532 Y82.185 E68.70856
G1 X90.598 Y84.252 E69.05571
G1 X90.598 Y85.266 E69.17606
G1 X87.518 Y82.185 E69.69342
G1 X86.505 Y82.185 E69.81378
G1 X90.598 Y86.279 E70.50135
G1 X90.598 Y87.293 E70.62171
G1 X85.491 Y82.185 E71.47950
G1 X84.478 Y82.185 E71.59986
G1 X90.598 Y88.306 E72.62785
G1 X90.598 Y89.319 E72.74821
G1 X83.464 Y82.185 E73.94642
G1 X82.451 Y82.185 E74.06678
G1 X90.598 Y90.333 E75.43521
G1 X90.598 Y91.346 E75.55557
G1 X81.438 Y82.185 E77.09420
G1 X80.424 Y82.185 E77.21456
G1 X90.598 Y92.360 E78.92341
G1 X90.598 Y93.373 E79.04377
G1 X79.411 Y82.185 E80.92284
G1 X78.397 Y82.185 E81.04320
G1 X90.598 Y94.387 E83.09247
G1 X90.598 Y95.400 E83.21283
G1 X77.384 Y82.185 E85.43232
G1 X76.371 Y82.185 E85.55268
G1 X90.598 Y96.413 E87.94239
G1 X90.598 Y97.427 E88.06275
G1 X75.357 Y82.185 E90.62266
G1 X74.344 Y82.185 E90.74302
G1 X90.598 Y98.440 E93.47315
G1 X90.598 Y99.454 E93.59351
G1 X73.330 Y82.185 E96.49385
G1 X72.317 Y82.185 E96.61421
G1 X90.598 Y100.467 E99.68477
G1 X90.598 Y101.480 E99.80513
G1 X71.303 Y82.185 E103.04590
G1 X70.290 Y82.185 E103.16626
G1 X90.598 Y102.494 E106.57724
G1 X90.598 Y103.507 E106.69760
G1 X69.277 Y82.185 E110.27880
G1 X68.263 Y82.185 E110.39916
G1 X90.598 Y104.521 E114.15057
G1 X90.598 Y105.534 E114.27092
G1 X67.250 Y82.185 E118.19255
G1 X66.236 Y82.185 E118.31291
G1 X90.598 Y106.548 E122.40474
G1 X90.598 Y107.561 E122.52510
G1 X65.223 Y82.185 E126.78715
G1 X64.209 Y82.185 E126.90751
G1 X90.598 Y108.574 E131.33977
G1 X90.598 Y109.588 E131.46013
G1 X63.196 Y82.185 E136.06261
G1 X62.183 Y82.185 E136.18297
G1 X90.598 Y110.601 E140.95566
G1 X90.598 Y111.615 E141.07601
G1 X61.169 Y82.185 E146.01892
G1 X60.156 Y82.185 E146.13928
G1 X90.598 Y112.628 E151.25239
G1 X90.598 Y113.641 E151.37275
G1 X59.142 Y82.185 E156.65608
G1 X58.129 Y82.185 E156.77644
G1 X90.598 Y114.655 E162.22998
G1 X90.598 Y115.668 E162.35034
G1 X57.116 Y82.185 E167.97409
G1 X56.102 Y82.185 E168.09445
G1 X90.598 Y116.682 E173.88842
G1 X90.226 Y117.323 E173.97646
G1 X55.089 Y82.185 E179.87808
G1 X54.075 Y82.185 E179.99844
G1 X89.212 Y117.323 E185.90005
G1 X88.199 Y117.323 E186.02041
G1 X53.062 Y82.185 E191.92202
G1 X52.048 Y82.185 E192.04238
G1 X87.186 Y117.323 E197.94400
G1 X86.172 Y117.323 E198.06435
G1 X51.035 Y82.185 E203.96597
G1 X50.022 Y82.185 E204.08633
G1 X85.159 Y117.323 E209.98794
G1 X84.145 Y117.323 E210.10830
G1 X49.008 Y82.185 E216.00992
G1 X47.995 Y82.185 E216.13027
G1 X83.132 Y117.323 E222.03189
G1 X82.119 Y117.323 E222.15225
G1 X46.981 Y82.185 E228.05386
G1 X45.968 Y82.185 E228.17422
G1 X81.105 Y117.323 E234.07584
G1 X80.092 Y117.323 E234.19619
G1 X44.955 Y82.185 E240.09781
G1 X43.941 Y82.185 E240.21817
G1 X79.078 Y117.323 E246.11978
G1 X78.065 Y117.323 E246.24014
G1 X42.928 Y82.185 E252.14175
G1 X41.914 Y82.185 E252.26211
G1 X77.051 Y117.323 E258.16373
G1 X76.038 Y117.323 E258.28409
G1 X40.901 Y82.185 E264.18570
G1 X39.887 Y82.185 E264.30606
G1 X75.025 Y117.323 E270.20767
G1 X74.011 Y117.323 E270.32803
G1 X38.874 Y82.185 E276.22965
G1 X37.861 Y82.185 E276.35001
G1 X72.998 Y117.323 E282.25162
G1 X71.984 Y117.323 E282.37198
G1 X36.847 Y82.185 E288.27359
G1 X35.834 Y82.185 E288.39395
G1 X70.971 Y117.323 E294.29557
G1 X69.957 Y117.323 E294.41593
G1 X35.461 Y82.826 E300.20989
G1 X35.461 Y83.840 E300.33025
G1 X68.944 Y117.323 E305.95401
G1 X67.931 Y117.323 E306.07437
G1 X35.461 Y84.853 E311.52791
G1 X35.461 Y85.867 E311.64827
G1 X66.917 Y117.323 E316.93160
G1 X65.904 Y117.323 E317.05196
G1 X35.461 Y86.880 E322.16507
G1 X35.461 Y87.893 E322.28543
G1 X64.890 Y117.323 E327.22833
G1 X63.877 Y117.323 E327.34869
G1 X35.461 Y88.907 E332.12138
G1 X35.461 Y89.920 E332.24174
G1 X62.864 Y117.323 E336.84422
G1 X61.850 Y117.323 E336.96457
G1 X35.461 Y90.934 E341.39684
G1 X35.461 Y91.947 E341.51720
G1 X60.837 Y117.323 E345.77924
G1 X59.823 Y117.323 E345.89960
G1 X35.461 Y92.961 E349.99144
G1 X35.461 Y93.974 E350.11180
G1 X58.810 Y117.323 E354.03342
G1 X57.796 Y117.323 E354.15378
