; generated by Slic3r 1.1.7 on 2014-10-16 at 17:26:37

; perimeters extrusion width = 0.40mm
; infill extrusion width = 0.42mm
; solid infill extrusion width = 0.42mm
; top infill extrusion width = 0.42mm

G21 ; set units to millimeters
M107
M190 S50 ; wait for bed temperature to be reached
M104 S250 ; set temperature
G28 ; home all axes

M109 S250 ; wait for temperature to be reached
G90 ; use absolute coordinates
G92 E0
M82 ; use absolute distances for extrusion
G1 F1800.000 E-1.00000
G92 E0
G1 Z0.400 F7800.000
G1 X66.977 Y89.378 F7800.000
G1 E1.00000 F1800.000
G1 X69.137 Y88.562 E1.27422 F1080.000
G1 X70.394 Y88.443 E1.42419
G1 X123.619 Y88.473 E7.74549
G1 X124.943 Y88.714 E7.90524 F1080.000
G1 X126.199 Y89.197 E8.06507
G1 X126.828 Y89.547 E8.15061
G1 X128.698 Y90.721 E8.41286
G1 X129.251 Y91.103 E8.49271
G1 X130.306 Y92.081 E8.66349
G1 X131.051 Y93.089 E8.81232
G1 X131.398 Y93.720 E8.89784
G1 X135.653 Y102.537 E10.06062
G1 X136.284 Y104.758 E10.33484
G1 X136.125 Y107.062 E10.60906
G1 X135.195 Y109.175 E10.88329
G1 X132.877 Y111.318 E11.25821
G1 X132.726 Y111.403 E11.27882
G1 X129.638 Y112.251 E11.65909
G1 X81.095 Y113.570 E17.42642
G1 X70.394 Y113.572 E18.69736
G1 X68.120 Y113.175 E18.97158
G1 X66.114 Y112.030 E19.24581
G1 X64.615 Y110.275 E19.52003
G1 X63.799 Y108.115 E19.79426
G1 X63.680 Y106.857 E19.94422
G1 X63.680 Y95.157 E21.33378
G1 X64.077 Y92.883 E21.60800
G1 X65.221 Y90.877 E21.88223
G1 X66.931 Y89.417 E22.14933
G1 F1800.000 E21.14933
G92 E0
G1 X73.253 Y105.029 F7800.000
G1 E1.00000 F1800.000
G1 X72.222 Y105.029 E1.12240 F540.000
G1 X72.222 Y103.538 E1.29952
G1 X72.722 Y103.475 E1.35934
G1 X73.006 Y104.580 E1.49486
G1 X73.224 Y104.977 E1.54863
G1 X72.722 Y102.119 F7800.000
G1 X72.222 Y102.056 E1.60845 F540.000
G1 X72.222 Y96.986 E2.21060
G1 X92.340 Y96.986 E4.59989
G1 X92.406 Y97.482 E4.65930
G1 X90.049 Y98.121 E4.94942
G1 X88.765 Y98.561 E5.11061
G1 X88.002 Y98.877 E5.20871
G1 X86.749 Y99.494 E5.37455
G1 X86.066 Y99.885 E5.46799
G1 X84.870 Y100.678 E5.63848
G1 X84.274 Y101.129 E5.72727
G1 X83.158 Y102.094 E5.90241
G1 X82.362 Y102.876 E6.03502
G1 X82.199 Y101.592 E6.18872
G1 X81.752 Y100.464 E6.33289
G1 X81.039 Y99.481 E6.47710
G1 X80.104 Y98.708 E6.62124
G1 X79.005 Y98.191 E6.76543
G1 X77.813 Y97.963 E6.90960
G1 X76.601 Y98.040 E7.05376
G1 X75.447 Y98.415 E7.19794
G1 X74.422 Y99.065 E7.34210
G1 X73.591 Y99.950 E7.48626
G1 X73.006 Y101.014 E7.63043
G1 X72.737 Y102.061 E7.75882
G1 F1800.000 E6.75882
G92 E0
G1 X96.974 Y97.523 F7800.000
G1 E1.00000 F1800.000
G1 X97.006 Y96.986 E1.06395 F540.000
G1 X122.610 Y96.986 E4.10485
G1 X123.870 Y97.777 E4.28159
G1 X124.939 Y99.991 E4.57357
G1 X123.471 Y99.444 E4.75966
G1 X122.352 Y99.105 E4.89842
G1 X121.345 Y98.870 E5.02127
G1 X120.216 Y98.680 E5.15732
G1 X119.164 Y98.572 E5.28286
G1 X118.042 Y98.527 E5.41622
G1 X116.963 Y98.554 E5.54446
G1 X115.867 Y98.650 E5.67511
G1 X114.777 Y98.817 E5.80606
G1 X113.724 Y99.047 E5.93401
G1 X112.642 Y99.357 E6.06766
G1 X111.649 Y99.711 E6.19290
G1 X110.594 Y100.164 E6.32926
G1 X109.674 Y100.631 E6.45181
G1 X108.666 Y101.226 E6.59086
G1 X107.831 Y101.793 E6.71070
G1 X107.085 Y102.373 E6.82293
G1 X106.389 Y101.715 E6.93658
G1 X105.586 Y101.048 E7.06059
G1 X104.665 Y100.378 E7.19588
G1 X103.750 Y99.798 E7.32454
G1 X102.786 Y99.269 E7.45518
G1 X101.769 Y98.793 E7.58848
G1 X100.782 Y98.406 E7.71447
G1 X99.675 Y98.052 E7.85243
G1 X98.684 Y97.803 E7.97377
G1 X97.503 Y97.586 E8.11637
G1 X97.033 Y97.530 E8.17259
G1 X107.036 Y103.348 F7800.000
G1 X106.739 Y103.028 E8.22446 F540.000
G1 X105.916 Y102.250 E8.35897
G1 X105.147 Y101.612 E8.47756
G1 X104.263 Y100.969 E8.60742
G1 X103.387 Y100.413 E8.73066
G1 X102.463 Y99.906 E8.85588
G1 X101.487 Y99.450 E8.98376
G1 X100.542 Y99.079 E9.10433
G1 X99.479 Y98.739 E9.23686
G1 X98.533 Y98.501 E9.35278
G1 X97.397 Y98.293 E9.48996
G1 X96.466 Y98.182 E9.60123
G1 X95.274 Y98.118 E9.74306
G1 X94.376 Y98.126 E9.84968
G1 X93.146 Y98.217 E9.99616
G1 X92.010 Y98.374 E10.13240
G1 X92.010 Y98.329 E10.13777
G1 X90.258 Y98.805 E10.35334
G1 X89.017 Y99.229 E10.50911
G1 X88.296 Y99.528 E10.60179
G1 X87.084 Y100.124 E10.76220
G1 X86.441 Y100.493 E10.85023
G1 X85.283 Y101.261 E11.01529
G1 X84.723 Y101.685 E11.09866
G1 X83.643 Y102.619 E11.26838
G1 X83.170 Y103.084 E11.34710
G1 X82.191 Y104.178 E11.52146
G1 X81.803 Y104.670 E11.59584
G1 X81.588 Y104.986 E11.64123
G1 X81.136 Y104.746 E11.70199
G1 X81.502 Y103.822 E11.82004
G1 X81.632 Y102.797 E11.94281
G1 X81.502 Y101.771 E12.06554
G1 X81.122 Y100.810 E12.18828
G1 X80.514 Y99.974 E12.31105
G1 X79.718 Y99.316 E12.43377
G1 X78.783 Y98.876 E12.55653
G1 X77.767 Y98.682 E12.67927
G1 X76.736 Y98.747 E12.80200
G1 X75.753 Y99.066 E12.92475
G1 X74.881 Y99.620 E13.04749
G1 X74.173 Y100.373 E13.17023
G1 X73.675 Y101.279 E13.29296
G1 X73.418 Y102.280 E13.41571
G1 X73.418 Y103.313 E13.53847
G1 X73.675 Y104.315 E13.66123
G1 X74.173 Y105.220 E13.78397
G1 X74.664 Y105.743 E13.86917
G1 X71.508 Y105.743 E14.24399
G1 X71.508 Y96.272 E15.36889
G1 X122.816 Y96.272 E21.46241
G1 X124.424 Y97.281 E21.68798
G1 X126.233 Y101.030 E22.18229
G1 X125.936 Y101.317 E22.23136
G1 X125.193 Y100.926 E22.33103
G1 X124.148 Y100.458 E22.46709
G1 X123.242 Y100.121 E22.58183
G1 X122.168 Y99.795 E22.71519
G1 X121.205 Y99.570 E22.83264
G1 X120.120 Y99.388 E22.96330
G1 X119.113 Y99.284 E23.08345
G1 X118.037 Y99.242 E23.21140
G1 X117.003 Y99.267 E23.33426
G1 X115.952 Y99.360 E23.45951
G1 X114.907 Y99.520 E23.58507
G1 X113.899 Y99.740 E23.70762
G1 X112.861 Y100.037 E23.83587
G1 X111.910 Y100.376 E23.95572
G1 X110.897 Y100.811 E24.08668
G1 X110.017 Y101.258 E24.20383
G1 X109.048 Y101.830 E24.33749
G1 X108.251 Y102.371 E24.45193
G1 X107.344 Y103.075 E24.58830
G1 X107.081 Y103.308 E24.63001
G1 X106.988 Y104.343 F7800.000
G1 X106.232 Y103.532 E24.76180 F378.000
G1 X105.442 Y102.785 E24.89089
G1 X104.709 Y102.176 E25.00406
G1 X103.862 Y101.559 E25.12850
G1 X103.024 Y101.028 E25.24632
G1 X102.139 Y100.543 E25.36611
G1 X101.205 Y100.106 E25.48857
G1 X100.303 Y99.752 E25.60372
G1 X99.283 Y99.426 E25.73083
G1 X98.381 Y99.200 E25.84133
G1 X97.290 Y98.999 E25.97309
G1 X96.405 Y98.894 E26.07894
G1 X95.258 Y98.832 E26.21535
G1 X94.406 Y98.840 E26.31655
G1 X93.221 Y98.928 E26.45760
G1 X92.416 Y99.039 E26.55415
G1 X91.296 Y99.263 E26.68986
G1 X90.467 Y99.488 E26.79177
G1 X89.270 Y99.898 E26.94213
G1 X88.591 Y100.179 E27.02938
G1 X87.420 Y100.755 E27.18437
G1 X86.817 Y101.101 E27.26697
G1 X85.696 Y101.844 E27.42662
G1 X85.173 Y102.240 E27.50457
G1 X84.127 Y103.145 E27.66886
G1 X83.686 Y103.577 E27.74216
G1 X82.738 Y104.637 E27.91110
G1 X82.380 Y105.092 E27.97986
G1 X81.526 Y106.352 E28.16060
G1 X81.264 Y106.422 E28.19281
G1 X81.012 Y106.456 E28.22297
G1 X78.708 Y106.457 E28.49659
G1 X78.608 Y106.011 E28.55095
G1 X79.332 Y105.670 E28.64594
G1 X79.989 Y105.126 E28.74725
G1 X80.491 Y104.436 E28.84857
G1 X80.805 Y103.643 E28.94988
G1 X80.912 Y102.797 E29.05121
G1 X80.805 Y101.950 E29.15252
G1 X80.491 Y101.157 E29.25383
G1 X79.989 Y100.467 E29.35515
G1 X79.332 Y99.923 E29.45646
G1 X78.620 Y99.588 E29.54999
G1 X78.560 Y99.560 E29.55778
G1 X77.722 Y99.400 E29.65909
G1 X76.871 Y99.454 E29.76040
G1 X76.060 Y99.717 E29.86172
G1 X75.339 Y100.175 E29.96303
G1 X74.755 Y100.796 E30.06434
G1 X74.344 Y101.544 E30.16565
G1 X74.132 Y102.370 E30.26697
G1 X74.132 Y103.223 E30.36829
G1 X74.344 Y104.050 E30.46961
G1 X74.755 Y104.797 E30.57092
G1 X75.339 Y105.419 E30.67223
G1 X76.060 Y105.876 E30.77355
G1 X76.366 Y105.975 E30.81175
G1 X76.289 Y106.457 E30.86970
G1 X70.794 Y106.457 E31.52233
G1 X70.794 Y95.557 E32.81687
G1 X123.021 Y95.557 E39.01962
G1 X124.978 Y96.786 E39.29403
G1 X127.981 Y103.009 E40.11471
G1 X127.624 Y103.294 E40.16891
G1 X127.351 Y103.074 E40.21055
G1 X126.634 Y102.572 E40.31450
G1 X125.676 Y101.987 E40.44786
G1 X124.881 Y101.569 E40.55451
G1 X123.877 Y101.119 E40.68518
G1 X123.014 Y100.798 E40.79453
G1 X121.983 Y100.486 E40.92249
G1 X121.064 Y100.271 E41.03455
G1 X120.024 Y100.096 E41.15981
G1 X119.063 Y99.997 E41.27456
G1 X118.031 Y99.956 E41.39712
G1 X117.043 Y99.981 E41.51458
G1 X116.037 Y100.069 E41.63444
G1 X115.037 Y100.222 E41.75460
G1 X114.074 Y100.433 E41.87175
G1 X113.079 Y100.717 E41.99461
G1 X112.171 Y101.041 E42.10906
G1 X111.200 Y101.458 E42.23463
G1 X110.361 Y101.884 E42.34638
G1 X109.431 Y102.433 E42.47465
G1 X108.671 Y102.949 E42.58369
G1 X107.800 Y103.626 E42.71466
G1 X107.033 Y104.304 E42.83630
G1 X106.902 Y103.953 F7800.000
G1 F1800.000 E41.83630
G92 E0
G1 X128.061 Y103.457 F7800.000
G1 E1.00000 F1800.000
G1 X128.800 Y104.448 E1.14677 F378.000
G1 X129.530 Y105.493 E1.29819
G1 F1800.000 E0.29819
G92 E0
G1 X89.590 Y97.483 F7800.000
G1 E1.00000 F1800.000
G1 X89.634 Y97.528 E1.00744 F1080.000
G1 X89.036 Y97.942 E1.09382
G1 X88.578 Y97.483 E1.17079
G1 X88.298 Y98.215 E1.26386
G1 X87.566 Y97.483 E1.38678
G1 X86.554 Y97.483 E1.50696
G1 X87.594 Y98.523 E1.68155
G1 X86.916 Y98.857 E1.77132
G1 X85.542 Y97.483 E2.00197
G1 X84.530 Y97.483 E2.12215
G1 X86.252 Y99.205 E2.41127
G1 X85.619 Y99.584 E2.49888
G1 X83.518 Y97.483 E2.85171
G1 X82.506 Y97.483 E2.97190
G1 X85.010 Y99.987 E3.39247
G1 X84.412 Y100.400 E3.47887
G1 X81.494 Y97.483 E3.96881
G1 X80.483 Y97.483 E4.08900
G1 X83.843 Y100.844 E4.65341
G1 X83.300 Y101.313 E4.73862
G1 X82.147 Y100.160 E4.93233
G1 X82.720 Y101.745 F7800.000
G1 X82.758 Y101.782 E4.93859 F1080.000
G1 X80.181 Y98.194 F7800.000
G1 X79.471 Y97.483 E5.05799 F1080.000
G1 X92.737 Y97.258 F7800.000
G1 X94.356 Y97.199 E5.35818 F360.000
G1 X95.312 Y97.195 E5.53538
G1 X96.633 Y97.231 E5.78027
G1 X76.525 Y97.512 F7800.000
G1 X74.865 Y97.774 E5.89207 F360.000
G1 X74.278 Y97.483 F7800.000
G1 X74.322 Y97.528 E5.89947 F1080.000
G1 X74.316 Y98.543 E6.02007
G1 X73.256 Y97.483 E6.19803
G1 X72.720 Y97.969 E6.28394
G1 X73.776 Y99.025 E6.46133
G1 X73.282 Y99.552 E6.54718
G1 X72.720 Y98.991 E6.64147
G1 X72.720 Y100.013 E6.76281
G1 X72.768 Y100.060 E6.77084
G1 X100.303 Y97.697 F7800.000
G1 X100.352 Y97.746 E6.77896 F1080.000
G1 X101.157 Y97.483 E6.87953
G1 X102.047 Y98.374 E7.02909
G1 X102.224 Y97.483 E7.13692
G1 X104.294 Y99.553 E7.48446
G1 X107.347 Y101.539 F7800.000
G1 X103.292 Y97.483 E8.16558 F1080.000
G1 X104.359 Y97.483 E8.29236
G1 X107.972 Y101.096 E8.89909
G1 X108.619 Y100.676 E8.99075
G1 X105.427 Y97.483 E9.52692
G1 X106.494 Y97.483 E9.65370
G1 X109.290 Y100.279 E10.12332
G1 X109.991 Y99.912 E10.21723
G1 X107.562 Y97.483 E10.62517
G1 X108.629 Y97.483 E10.75195
G1 X110.716 Y99.570 E11.10242
G1 X111.462 Y99.249 E11.19892
G1 X109.697 Y97.483 E11.49548
G1 X110.764 Y97.483 E11.62226
G1 X112.249 Y98.968 E11.87168
G1 X113.066 Y98.718 E11.97315
G1 X111.832 Y97.483 E12.18045
G1 X112.899 Y97.483 E12.30723
G1 X113.912 Y98.496 E12.47736
G1 X114.008 Y97.525 E12.59328
G1 X113.966 Y97.483 E12.60029
G1 X114.537 Y97.914 F7800.000
G1 X115.782 Y97.820 E12.83166 F360.000
G1 X116.905 Y97.771 E13.03991
G1 X118.035 Y97.756 E13.24921
G1 X119.234 Y97.780 E13.47153
G1 X120.314 Y97.836 E13.67186
G1 X121.316 Y97.919 E13.85813
G1 X121.773 Y98.424 F7800.000
G1 X121.818 Y98.469 E13.86575 F1080.000
G1 X122.726 Y97.678 E14.00877
G1 X122.642 Y97.594 E14.02288
G1 X123.431 Y97.923 F7800.000
G1 X123.450 Y98.647 E14.07110 F360.000
G1 X124.231 Y99.346 E14.14079
M106 S255
G1 F1800.000 E13.14079
G92 E0
G1 Z0.700 F7800.000
G1 X80.710 Y102.797 F7800.000
G1 E1.00000 F1800.000
G1 X80.610 Y103.593 E1.04004 F1125.769
G1 X80.314 Y104.339 E1.08008
G1 X79.842 Y104.988 E1.12012
G1 X79.224 Y105.500 E1.16015
G1 X78.498 Y105.842 E1.20019
G1 X77.710 Y105.992 E1.24023
G1 X76.909 Y105.942 E1.28027
G1 X76.145 Y105.694 E1.32031
G1 X76.089 Y105.658 E1.32363
G1 X75.468 Y105.264 E1.36035
G1 X74.918 Y104.679 E1.40038
G1 X74.532 Y103.975 E1.44042
G1 X74.332 Y103.198 E1.48046
G1 X74.332 Y102.395 E1.52050
G1 X74.532 Y101.618 E1.56054
G1 X74.918 Y100.915 E1.60058
G1 X75.468 Y100.330 E1.64062
G1 X76.145 Y99.900 E1.68065
G1 X76.909 Y99.652 E1.72069
G1 X77.710 Y99.601 E1.76073
G1 X77.775 Y99.614 E1.76406
G1 X78.498 Y99.752 E1.80077 F1125.769
G1 X79.224 Y100.094 E1.84081
G1 X79.842 Y100.605 E1.88085
G1 X80.314 Y101.254 E1.92088
G1 X80.610 Y102.001 E1.96092
G1 X80.703 Y102.737 E1.99797
G1 F1800.000 E0.99797
G92 E0
G1 X77.710 Y99.219 F7800.000
G1 X79.684 Y106.157 F7800.000
G1 E1.00000 F1800.000
G1 X80.430 Y105.540 E1.04829 F1608.241
G1 X81.021 Y104.728 E1.09842
G1 X81.391 Y103.793 E1.14854
G1 X81.517 Y102.797 E1.19866
G1 X81.391 Y101.800 E1.24878
G1 X81.021 Y100.866 E1.29891
G1 X80.430 Y100.053 E1.34903
G1 X79.656 Y99.413 E1.39915
G1 X78.899 Y99.056 E1.44091
G1 X78.747 Y98.985 E1.44928
G1 X77.760 Y98.797 E1.49939
G1 X76.758 Y98.860 E1.54952
G1 X75.802 Y99.170 E1.59964
G1 X74.954 Y99.709 E1.64976
G1 X74.266 Y100.441 E1.69989
G1 X73.782 Y101.321 E1.75001
G1 X73.532 Y102.294 E1.80013
G1 X73.532 Y103.299 E1.85026
G1 X73.782 Y104.272 E1.90038
G1 X74.266 Y105.153 E1.95050
G1 X75.210 Y106.157 E2.01927
G1 X71.394 Y106.157 E2.20963
G1 X71.394 Y96.157 E2.70853
G1 X122.848 Y96.157 E5.27560
G1 X124.513 Y97.202 E5.37363
G1 X126.870 Y102.087 E5.64420
G1 X126.692 Y102.247 E5.65614
G1 X125.828 Y101.720 E5.70665
G1 X125.014 Y101.292 E5.75253
G1 X123.994 Y100.835 E5.80830
G1 X123.112 Y100.506 E5.85530
G1 X122.063 Y100.189 E5.90996
G1 X121.124 Y99.969 E5.95806
G1 X120.066 Y99.791 E6.01161
G1 X119.084 Y99.690 E6.06083
G1 X118.034 Y99.649 E6.11326
G1 X117.025 Y99.673 E6.16360
G1 X116.001 Y99.764 E6.21492
G1 X114.981 Y99.919 E6.26636
G1 X113.998 Y100.134 E6.31657
G1 X112.985 Y100.424 E6.36913
G1 X112.058 Y100.754 E6.41822
G1 X111.070 Y101.179 E6.47190
G1 X110.212 Y101.614 E6.51988
G1 X109.267 Y102.173 E6.57466
G1 X108.490 Y102.701 E6.62153
G1 X107.605 Y103.388 E6.67743
G1 X107.004 Y103.918 E6.71740
G1 X106.445 Y103.318 E6.75833
G1 X105.642 Y102.559 E6.81344
G1 X104.894 Y101.938 E6.86200
G1 X104.032 Y101.310 E6.91520
G1 X103.177 Y100.768 E6.96567
G1 X102.276 Y100.274 E7.01696
G1 X101.325 Y99.829 E7.06934
G1 X100.404 Y99.468 E7.11872
G1 X99.367 Y99.136 E7.17302
G1 X98.444 Y98.904 E7.22047
G1 X97.336 Y98.701 E7.27669
G1 X96.430 Y98.593 E7.32223
G1 X95.266 Y98.530 E7.38036
G1 X94.392 Y98.539 E7.42399
G1 X93.191 Y98.628 E7.48403
G1 X92.363 Y98.742 E7.52574
G1 X91.147 Y98.991 E7.58770
G1 X90.377 Y99.200 E7.62750
G1 X89.165 Y99.614 E7.69137
G1 X88.464 Y99.905 E7.72925
G1 X87.281 Y100.487 E7.79504
G1 X86.655 Y100.846 E7.83100
G1 X85.524 Y101.595 E7.89871
G1 X84.980 Y102.008 E7.93275
G1 X83.925 Y102.920 E8.00237
G1 X83.465 Y103.372 E8.03450
G1 X82.509 Y104.440 E8.10603
G1 X82.134 Y104.916 E8.13629
G1 X81.435 Y105.938 E8.19804
G1 X81.095 Y106.098 E8.21678
G1 X80.922 Y106.157 E8.22591
G1 X79.744 Y106.157 E8.28465
G1 X78.400 Y106.268 F7800.000
G1 X78.623 Y106.225 E8.29595 F1608.241
G1 X79.440 Y105.840 E8.34103
G1 X80.136 Y105.264 E8.38611
G1 X80.668 Y104.533 E8.43119
G1 X81.000 Y103.693 E8.47627
G1 X81.113 Y102.797 E8.52135
G1 X81.000 Y101.900 E8.56643
G1 X80.668 Y101.060 E8.61151
G1 X80.136 Y100.329 E8.65659
G1 X79.440 Y99.753 E8.70167
G1 X78.729 Y99.418 E8.74091
G1 X78.623 Y99.368 E8.74675
G1 X77.735 Y99.199 E8.79183
G1 X76.833 Y99.256 E8.83692
G1 X75.974 Y99.535 E8.88200
G1 X75.211 Y100.019 E8.92707
G1 X74.592 Y100.678 E8.97216
G1 X74.157 Y101.470 E9.01724
G1 X73.932 Y102.345 E9.06232
G1 X73.932 Y103.249 E9.10740
G1 X74.128 Y104.010 E9.14663
G1 X74.157 Y104.124 E9.15248
G1 X74.592 Y104.916 E9.19756
G1 X75.211 Y105.574 E9.24264
G1 X75.974 Y106.058 E9.28772
G1 X76.679 Y106.287 E9.32469
G1 X76.636 Y106.557 E9.33833
G1 X70.994 Y106.557 E9.61980
G1 X70.994 Y95.757 E10.15861
G1 X122.964 Y95.757 E12.75138
G1 X124.823 Y96.925 E12.86091
G1 X127.910 Y103.321 E13.21523
G1 X127.710 Y103.480 E13.22798
G1 X127.296 Y103.149 E13.25441
G1 X126.582 Y102.649 E13.29791
G1 X125.631 Y102.068 E13.35352
G1 X124.839 Y101.652 E13.39813
G1 X123.842 Y101.205 E13.45264
G1 X122.984 Y100.885 E13.49836
G1 X121.959 Y100.575 E13.55175
G1 X121.045 Y100.361 E13.59859
G1 X120.012 Y100.188 E13.65087
G1 X119.056 Y100.089 E13.69882
G1 X118.031 Y100.049 E13.74998
G1 X117.048 Y100.073 E13.79904
G1 X116.049 Y100.161 E13.84910
G1 X115.054 Y100.313 E13.89927
G1 X114.096 Y100.522 E13.94821
G1 X113.108 Y100.805 E13.99950
